remix/Finance/shopping-basket-fill.svg

<svg viewBox="0 0 24 24" fill="currentColor" xmlns="http://www.w3.org/2000/svg"><path d="M12.0049 2C15.3186 2 18.0049 4.68629 18.0049 8V9H22.0049V11H20.8379L20.0813 20.083C20.0381 20.6013 19.6048 21 19.0847 21H4.92502C4.40493 21 3.97166 20.6013 3.92847 20.083L3.17088 11H2.00488V9H6.00488V8C6.00488 4.68629 8.69117 2 12.0049 2ZM13.0049 13H11.0049V17H13.0049V13ZM9.00488 13H7.00488V17H9.00488V13ZM17.0049 13H15.0049V17H17.0049V13ZM12.0049 4C9.86269 4 8.1138 5.68397 8.00978 7.80036L8.00488 8V9H16.0049V8C16.0049 5.8578 14.3209 4.10892 12.2045 4.0049L12.0049 4Z"/></svg>

<svg viewBox="0 0 24 24" xmlns="http://www.w3.org/2000/svg"><path fill="none" d="M0 0h24v24H0Z"/><path d="M12 2v0c3.31 0 6 2.68 6 6v1h4v2h-1.17l-.76 9.08h-.001c-.05.51-.48.91-1 .91H4.9v0c-.52-.01-.96-.4-.996-.92l-.758-9.09H1.98v-2h4v-1 0c0-3.32 2.68-6 6-6Zm1 11h-2v4h2v-4Zm-4 0H7v4h2v-4Zm8 0h-2v4h2v-4Zm-5-9v0c-2.14-.01-3.89 1.67-4 3.8l-.01.2v1h8V8v0c0-2.14-1.68-3.89-3.8-4l-.2-.01Z"/></svg>
